icons/svg/24x24/trash/outline.svg

<svg xmlns="http://www.w3.org/2000/svg" width="24" height="24" viewBox="0 0 24 24">
  <path fill-rule="evenodd" d="M19,4 C19,4.553 18.553,5 18,5 L6,5 C5.447,5 5,4.553 5,4 C5,3.447 5.447,3 6,3 L9,3 C9,2.447 9.447,2 10,2 L14,2 C14.553,2 15,2.447 15,3 L18,3 C18.553,3 19,3.447 19,4 L19,4 Z M8,8 L16,8 L16,19 C16,19.552 15.552,20 15,20 L9,20 C8.448,20 8,19.552 8,19 L8,8 Z M6,19 C6,20.657 7.343,22 9,22 L15,22 C16.657,22 18,20.657 18,19 L18,6 L6,6 L6,19 Z"/>
</svg>

<svg width="24" height="24" fill="none" xmlns="http://www.w3.org/2000/svg">
  <path fill-rule="evenodd" clip-rule="evenodd" d="M19 4a1 1 0 01-1 1H6a1 1 0 110-2h3a1 1 0 011-1h4a1 1 0 011 1h3a1 1 0 011 1zM8 8h8v11a1 1 0 01-1 1H9a1 1 0 01-1-1V8zM6 19a3 3 0 003 3h6a3 3 0 003-3V6H6v13z" fill="#000"/>
</svg>
